src/dark/hiso font dark_t.svg

<svg xmlns="http://www.w3.org/2000/svg" width="90" height="126" viewBox="0 0 90 126"><path fill="#000101" d="M36 9l-36 18 18 9v54l36 18v-72l18-9-36-18zm15 94.15l-30-15v-50.65l15 7.5 15-7.531v65.681zm-15-61.5l-29.29-14.65 29.29-14.65 29.29 14.65-29.29 14.65z"/></svg>

<svg xmlns="http://www.w3.org/2000/svg" width="90" height="126"><path fill="#000101" d="M36 9L0 27l18 9v54l36 18V36l18-9L36 9zm15 94.15l-30-15V37.5L36 45l15-7.531v65.681zm-15-61.5L6.71 27 36 12.35 65.29 27 36 41.65z"/></svg>
